images/services/stories-icon.svg

<?xml version="1.0" encoding="UTF-8"?>
<svg width="42" height="52" version="1.1" viewBox="0 0 42 52" xmlns="http://www.w3.org/2000/svg">
 <path d="m20.8 42.337c11.488 0 20.8-9.4775 20.8-21.169 0-11.691-9.3124-21.169-20.8-21.169-11.488 0-20.8 9.4775-20.8 21.169 0 11.691 9.3125 21.169 20.8 21.169z" fill="#FF725E"/>
 <path d="m37.399 30.345h-33.197c-0.66477-8e-4 -1.3068 0.2461-1.805 0.6941 3.4862 6.7185 10.419 11.298 18.403 11.298s14.917-4.5796 18.404-11.298c-0.4982-0.448-1.1403-0.6949-1.805-0.6941z" fill="#FF725E"/>
 <path d="m20.8 39.198c9.7842 0 17.716-8.0722 17.716-18.03 0-9.9577-7.9317-18.03-17.716-18.03-9.7843 0-17.716 8.0722-17.716 18.03 0 9.9576 7.9316 18.03 17.716 18.03z" fill="#fff"/>
 <path d="m5.556 30.345c3.0896 5.2957 8.7657 8.8534 15.244 8.8534s12.154-3.5576 15.244-8.8534h-30.488z" fill="#fff"/>
 <path d="m37.399 52h-33.197c-1.5089 0-2.7321-1.2448-2.7321-2.7804v-12.955c0-1.5356 1.2232-2.7804 2.7321-2.7804h33.197c1.5088 0 2.732 1.2448 2.732 2.7804v12.955c1e-4 1.5356-1.2231 2.7804-2.7319 2.7804z" fill="#FF725E"/>
 <path d="m37.399 33.484h-3.0841c1.5088 0 2.732 1.2448 2.732 2.7804v12.955c0 1.5356-1.2232 2.7804-2.732 2.7804h3.0841c1.5089 0 2.732-1.2448 2.732-2.7804v-12.955c1e-4 -1.5356-1.223-2.7804-2.732-2.7804z" fill="#FF725E"/>
 <path d="m10.568 47.288h-0.0044c-0.8678 0.0049-2.1158 0.0098-2.8994 9e-3v-9.8957c2e-5 -0.103-0.01992-0.2051-0.05866-0.3003s-0.09553-0.1817-0.16713-0.2546c-0.0716-0.0728-0.1566-0.1306-0.25015-0.17-0.09354-0.0395-0.19381-0.0598-0.29506-0.0597-0.10126-1e-4 -0.20152 0.0202-0.29507 0.0597-0.09355 0.0394-0.17855 0.0972-0.25015 0.17-0.07159 0.0729-0.12838 0.1594-0.16713 0.2546-0.03874 0.0952-0.05867 0.1973-0.05866 0.3003v10.671c-2e-5 0.1851 0.06428 0.3643 0.18154 0.5059 0.11726 0.1415 0.27993 0.2363 0.45924 0.2676 0.05478 0.0095 0.11825 0.0206 1.2562 0.0206 0.55465 0 1.3648-0.0026 2.5533-0.0094 0.2045-6e-4 0.4003-0.0839 0.5445-0.2315s0.2248-0.3474 0.2242-0.5555c-5e-4 -0.2081-0.0824-0.4074-0.2274-0.5542-0.145-0.1467-0.3413-0.2288-0.5458-0.2282zm4.098-10.671c-0.1012-1e-4 -0.2015 0.0202-0.295 0.0597-0.0936 0.0394-0.1786 0.0972-0.2502 0.17-0.0716 0.0729-0.1284 0.1594-0.1671 0.2546-0.0388 0.0952-0.0587 0.1973-0.0587 0.3003v10.68c0 0.1031 0.0199 0.2051 0.0587 0.3003 0.0387 0.0952 0.0955 0.1817 0.1671 0.2546s0.1566 0.1307 0.2502 0.1701c0.0935 0.0394 0.1938 0.0597 0.295 0.0597 0.1013 0 0.2015-0.0203 0.2951-0.0597 0.0935-0.0394 0.1785-0.0972 0.2501-0.1701s0.1284-0.1594 0.1672-0.2546c0.0387-0.0952 0.0586-0.1972 0.0586-0.3003v-10.68c1e-4 -0.103-0.0199-0.2051-0.0586-0.3003s-0.0955-0.1817-0.1671-0.2546-0.1566-0.1307-0.2502-0.1701c-0.0935-0.0395-0.1938-0.0598-0.2951-0.0597zm20.04 10.632h-3.6105v-3.722h3.2875c0.2045 0 0.4006-0.0827 0.5452-0.2299 0.1446-0.1471 0.2258-0.3467 0.2258-0.5548s-0.0812-0.4077-0.2258-0.5549c-0.1446-0.1471-0.3407-0.2298-0.5452-0.2298h-3.2875v-3.7221h3.6105c0.2045 0 0.4006-0.0826 0.5452-0.2298 0.1446-0.1471 0.2258-0.3467 0.2258-0.5548s-0.0812-0.4077-0.2258-0.5549c-0.1446-0.1471-0.3407-0.2298-0.5452-0.2298h-4.3815c-0.1013 0-0.2015 0.0203-0.2951 0.0597-0.0935 0.0394-0.1785 0.0972-0.2501 0.1701s-0.1284 0.1594-0.1672 0.2546c-0.0387 0.0952-0.0586 0.1972-0.0586 0.3003v10.583c0 0.103 0.0199 0.2051 0.0586 0.3003 0.0388 0.0952 0.0956 0.1817 0.1672 0.2546 0.0716 0.0728 0.1566 0.1306 0.2501 0.1701 0.0936 0.0394 0.1938 0.0597 0.2951 0.0597h4.3815c0.4259 0 0.771-0.3513 0.771-0.7847s-0.3451-0.7848-0.771-0.7848zm-8.2366-10.572c-0.194-0.0656-0.4057-0.0501-0.5885 0.0432-0.1828 0.0932-0.3218 0.2565-0.3862 0.454l-2.9302 8.9767-3.0718-9.0062c-0.1396-0.4095-0.5792-0.6268-0.9812-0.4841-0.0957 0.0338-0.1839 0.0864-0.2595 0.1549-0.0757 0.0685-0.1374 0.1514-0.1815 0.2442-0.0442 0.0927-0.07 0.1933-0.0759 0.2962-6e-3 0.1029 0.0081 0.2059 0.0413 0.3033l3.5898 10.526c0.0699 0.1996 0.1986 0.3723 0.3686 0.4944 0.1701 0.1222 0.3731 0.1878 0.5812 0.1879h0.0068c0.4287-0.0029 0.8094-0.2824 0.9491-0.7007l3.4265-10.497c0.032-0.0977 0.0447-0.201 0.0374-0.3037-0.0072-0.1028-0.0343-0.2031-0.0797-0.2953-0.0453-0.0921-0.1081-0.1742-0.1846-0.2416-0.0766-0.0674-0.1655-0.1189-0.2616-0.1513z" fill="#fff"/>
 <path d="m16.88 27.074v-11.81c0-1.1961 1.3373-1.8833 2.283-1.1732l7.8636 5.905c0.776 0.5826 0.776 1.7635 0 2.3463l-7.8636 5.9049c-0.9457 0.7101-2.283 0.023-2.283-1.1731z" fill="#FF725E"/>
 <path d="m27.026 19.996-7.8637-5.9049c-0.8021-0.6024-1.8855-0.1993-2.1961 0.6668 4.2409 3.1846 4.2409 9.6379 0 12.822 0.3106 0.866 1.3941 1.2692 2.1961 0.6668l7.8637-5.905c0.776-0.5825 0.776-1.7633 0-2.3461z" fill="#FF725E"/>
</svg>

<svg width="42" height="52" viewBox="0 0 42 52" fill="none" xmlns="http://www.w3.org/2000/svg">
<path d="M20.8 42.3373C32.2876 42.3373 41.6 32.8598 41.6 21.1687C41.6 9.47754 32.2876 0 20.8 0C9.31249 0 0 9.47754 0 21.1687C0 32.8598 9.31249 42.3373 20.8 42.3373Z" fill="#407BFF"/>
<path d="M37.3986 30.345H4.20158C3.53681 30.3442 2.89474 30.5911 2.39661 31.0391C5.8828 37.7576 12.8154 42.3372 20.8001 42.3372C28.7848 42.3372 35.7174 37.7576 39.2036 31.0391C38.7054 30.5911 38.0633 30.3442 37.3986 30.345Z" fill="#407BFF"/>
<path d="M20.8004 39.1985C30.5846 39.1985 38.5163 31.1263 38.5163 21.1687C38.5163 11.211 30.5846 3.13879 20.8004 3.13879C11.0161 3.13879 3.08447 11.211 3.08447 21.1687C3.08447 31.1263 11.0161 39.1985 20.8004 39.1985Z" fill="white"/>
<path d="M5.55603 30.345C8.64565 35.6407 14.3217 39.1984 20.7998 39.1984C27.2779 39.1984 32.954 35.6408 36.0436 30.345H5.55603Z" fill="white"/>
<path d="M37.3989 52H4.20166C2.69278 52 1.4696 50.7552 1.4696 49.2196V36.2645C1.4696 34.7289 2.69278 33.4841 4.20166 33.4841H37.3988C38.9076 33.4841 40.1308 34.7289 40.1308 36.2645V49.2196C40.1309 50.7552 38.9077 52 37.3989 52Z" fill="#407BFF"/>
<path d="M37.3986 33.4841H34.3145C35.8233 33.4841 37.0465 34.7289 37.0465 36.2645V49.2196C37.0465 50.7552 35.8233 52 34.3145 52H37.3986C38.9075 52 40.1306 50.7552 40.1306 49.2196V36.2645C40.1307 34.7289 38.9076 33.4841 37.3986 33.4841Z" fill="#407BFF"/>
<path d="M10.5685 47.2884H10.5641C9.6963 47.2933 8.44828 47.2982 7.66469 47.2974V37.4017C7.66471 37.2987 7.64477 37.1966 7.60603 37.1014C7.56729 37.0062 7.5105 36.9197 7.4389 36.8468C7.3673 36.774 7.2823 36.7162 7.18875 36.6768C7.09521 36.6373 6.99494 36.617 6.89369 36.6171C6.79243 36.617 6.69217 36.6373 6.59862 36.6768C6.50507 36.7162 6.42007 36.774 6.34847 36.8468C6.27688 36.9197 6.22009 37.0062 6.18134 37.1014C6.1426 37.1966 6.12267 37.2987 6.12268 37.4017V48.0731C6.12266 48.2582 6.18696 48.4374 6.30422 48.579C6.42148 48.7205 6.58415 48.8153 6.76346 48.8466C6.81824 48.8561 6.88171 48.8672 8.01966 48.8672C8.57431 48.8672 9.38444 48.8646 10.573 48.8578C10.7775 48.8572 10.9733 48.7739 11.1175 48.6263C11.2617 48.4787 11.3423 48.2789 11.3417 48.0708C11.3412 47.8627 11.2593 47.6634 11.1143 47.5166C10.9693 47.3699 10.773 47.2878 10.5685 47.2884ZM14.6665 36.617C14.5653 36.6169 14.465 36.6372 14.3715 36.6767C14.2779 36.7161 14.1929 36.7739 14.1213 36.8467C14.0497 36.9196 13.9929 37.0061 13.9542 37.1013C13.9154 37.1965 13.8955 37.2986 13.8955 37.4016V48.082C13.8955 48.1851 13.9154 48.2871 13.9542 48.3823C13.9929 48.4775 14.0497 48.564 14.1213 48.6369C14.1929 48.7098 14.2779 48.7676 14.3715 48.807C14.465 48.8464 14.5653 48.8667 14.6665 48.8667C14.7678 48.8667 14.868 48.8464 14.9616 48.807C15.0551 48.7676 15.1401 48.7098 15.2117 48.6369C15.2833 48.564 15.3401 48.4775 15.3789 48.3823C15.4176 48.2871 15.4375 48.1851 15.4375 48.082V37.4017C15.4376 37.2987 15.4176 37.1966 15.3789 37.1014C15.3402 37.0062 15.2834 36.9197 15.2118 36.8468C15.1402 36.7739 15.0552 36.7161 14.9616 36.6767C14.8681 36.6372 14.7678 36.6169 14.6665 36.617ZM34.7063 47.2486H31.0958V43.5266H34.3833C34.5878 43.5266 34.7839 43.4439 34.9285 43.2967C35.0731 43.1496 35.1543 42.95 35.1543 42.7419C35.1543 42.5338 35.0731 42.3342 34.9285 42.187C34.7839 42.0399 34.5878 41.9572 34.3833 41.9572H31.0958V38.2351H34.7063C34.9108 38.2351 35.1069 38.1525 35.2515 38.0053C35.3961 37.8582 35.4773 37.6586 35.4773 37.4505C35.4773 37.2424 35.3961 37.0428 35.2515 36.8956C35.1069 36.7485 34.9108 36.6658 34.7063 36.6658H30.3248C30.2235 36.6658 30.1233 36.6861 30.0297 36.7255C29.9362 36.7649 29.8512 36.8227 29.7796 36.8956C29.708 36.9685 29.6512 37.055 29.6124 37.1502C29.5737 37.2454 29.5538 37.3474 29.5538 37.4505V48.0334C29.5538 48.1364 29.5737 48.2385 29.6124 48.3337C29.6512 48.4289 29.708 48.5154 29.7796 48.5883C29.8512 48.6611 29.9362 48.7189 30.0297 48.7584C30.1233 48.7978 30.2235 48.8181 30.3248 48.8181H34.7063C35.1322 48.8181 35.4773 48.4668 35.4773 48.0334C35.4773 47.6 35.1322 47.2486 34.7063 47.2486ZM26.4697 36.6767C26.2757 36.6111 26.064 36.6266 25.8812 36.7199C25.6984 36.8131 25.5594 36.9764 25.495 37.1739L22.5648 46.1506L19.493 37.1444C19.3534 36.7349 18.9138 36.5176 18.5118 36.6603C18.4161 36.6941 18.3279 36.7467 18.2523 36.8152C18.1766 36.8837 18.1149 36.9666 18.0708 37.0594C18.0266 37.1521 18.0008 37.2527 17.9949 37.3556C17.9889 37.4585 18.003 37.5615 18.0362 37.6589L21.626 48.1844C21.6959 48.384 21.8246 48.5567 21.9946 48.6788C22.1647 48.801 22.3677 48.8666 22.5758 48.8667H22.5826C23.0113 48.8638 23.392 48.5843 23.5317 48.166L26.9582 37.6686C26.9902 37.5709 27.0029 37.4676 26.9956 37.3649C26.9884 37.2621 26.9613 37.1618 26.9159 37.0696C26.8706 36.9775 26.8078 36.8954 26.7313 36.828C26.6547 36.7606 26.5658 36.7091 26.4697 36.6767Z" fill="white"/>
<path d="M16.88 27.0738V15.2639C16.88 14.0678 18.2173 13.3806 19.163 14.0907L27.0266 19.9957C27.8026 20.5783 27.8026 21.7592 27.0266 22.342L19.163 28.2469C18.2173 28.957 16.88 28.2699 16.88 27.0738Z" fill="#407BFF"/>
<path d="M27.0264 19.9956L19.1627 14.0907C18.3606 13.4883 17.2772 13.8914 16.9666 14.7575C21.2075 17.9421 21.2075 24.3954 16.9666 27.5799C17.2772 28.4459 18.3607 28.8491 19.1627 28.2467L27.0264 22.3417C27.8024 21.7592 27.8024 20.5784 27.0264 19.9956Z" fill="#407BFF"/>
</svg>
